X:1
T: Kerr's Hornpipe
C:Alexander Walker
R:Reel
Q: 232
K:A
M:4/4
L:1/8
|:A1/2B1/2|cA EA FA EA|cA EC A,2 AB|cA EA FA EC|D2 B,2 B,2 AB|
cA EA FA EG|AG FE DC B,A,|B,C DE FA Bd|c2 A2 A3:|
|:e1/2d1/2|cA eA fA gA|ae fd c2 BA|ce Ae df ec|d2 B2 B2 ed|cA eA fA gA|
ae fd c2 BA|1AG FE DE FD|C2 A,2 A,3:|2de fd ce Bd|c2 A2 A3|
|:E1/2C1/2|A,E CE FE DC|FB EB AG FE|A,E CE FE DC|E2 B,2 B,2 D1/2C1/2B,|
A,E CE FE DC|FB EB AG FE|Ac ea fd BG|A2 A2 A3:|
|:f1/2g1/2|ab ae cd ec|ab ae c2 BA|ab ae dc BA|G2 B2 B2 e1/2f1/2g|ab ae cd ec|
ab ae c2 BA|1Bc de fa ef|c2 A2 A3:|2AG FE DE FD|C2 A,2 A,3||
